X: 14
T: The Frost Is All Over
R: jig
M: 6/8
L: 1/8
K: Dmaj
|:~f3 edc| dAF GFE| DFA dFA| ~B3 efg|
fed edc | dA/A/F GFE| DFA dFA|B/c/dc ~d3 :|
|:~f3 afd| g/a/bb bag| ~f2 aaga| gfg ~e3|
~f3 afd| gg/g/g bag| fga efg| fdcd3 :|


Tune 448	Setting 13319

